X:1
T:Louisian-I-A
M:4/4
L:1/8
Q:1/4=190
R:Traditional
C:J. C. Johnson (1928)
K:F
"D7" z2 a2b2a2  | z a ad ^f2d2 | z2 aa a3 f | d8     |
"G7" z a a_a g4 | z2 cc a3g    | a3f e2d2   | c8     |
"C7" z2 a2b2a2 | z b bb a4 | z f fd _b g2 f | d6-d f |
"F" g2 fg _a2g2 | "Ddim" z =a ^ga ba ^fd |
"F" zf fd a2 a2 | f2 a2 ba ^fd | z =f fd a2 a2 | f8 |]